flags/es-ce.svg

<svg width="512" height="512" viewBox="0 0 512 512" fill="none" xmlns="http://www.w3.org/2000/svg">
<path d="M0 0L140.5 27.8L256 0H512L485.7 132.8L512 256V512L373.3 481.5L256 512H0L30 372.1L0 256V0Z" fill="var(--flag-palette-white, #eeeeee)"/>
<path d="M0 0L256 256V0H0ZM256 256H512V0L256 256ZM256 256V512H512L256 256ZM256 256H0V512L256 256Z" fill="var(--flag-palette-black, #333333)"/>
<path d="M167 178L256 189.2L345 178.1V124.7L309.4 142.5L256 89L202.6 142.5L167 124.7V178Z" fill="var(--flag-palette-dark-yellow, #ffc635)"/>
<path d="M256 389.6C206.9 389.6 167 349.6 167 300.6V211.5L200.3 178.1H311.7L345 211.5V300.5C345 324.104 335.623 346.742 318.932 363.433C302.242 380.123 279.604 389.5 256 389.5V389.6Z" fill="var(--flag-palette-bright-red, #d80027)"/>
<path d="M256 356.2C225.3 356.2 200.3 331.2 200.3 300.5V211.5H311.7V300.5C311.7 331.2 286.7 356.2 256 356.2Z" fill="var(--flag-palette-white, #eeeeee)"/>
<path d="M167 178H200.3V211.5H167V178ZM311.7 178H345V211.5H311.7V178ZM311.7 250.4H345V283.8H311.7V250.4ZM167 250.4H200.3V283.8H167V250.4ZM256 356.2C250.2 356.2 244.6 355.2 239.3 353.6V388C250.334 390.108 261.666 390.108 272.7 388V353.6C267.299 355.314 261.667 356.191 256 356.2ZM201 309.6L174.4 336.2C179.012 346.69 185.599 356.196 193.8 364.2L217.4 340.5C208.763 332.197 203.045 321.322 201.1 309.5L201 309.6ZM337.6 336.2L310.9 309.6C308.9 321.6 303.1 332.4 294.6 340.6L318.2 364.1C326.391 356.126 332.977 346.655 337.6 336.2Z" fill="var(--flag-palette-dark-yellow, #ffc635)"/>
<path d="M244.9 230V248.6C244.9 251.544 246.069 254.367 248.151 256.449C250.233 258.531 253.056 259.7 256 259.7C258.944 259.7 261.767 258.531 263.849 256.449C265.931 254.367 267.1 251.544 267.1 248.6V230H245H244.9ZM244.9 304.2V322.8C244.9 325.744 246.069 328.567 248.151 330.649C250.233 332.731 253.056 333.9 256 333.9C258.944 333.9 261.767 332.731 263.849 330.649C265.931 328.567 267.1 325.744 267.1 322.8V304.2H245H244.9ZM278.3 267.2V285.7C278.3 288.644 279.469 291.467 281.551 293.549C283.633 295.631 286.456 296.8 289.4 296.8C292.344 296.8 295.167 295.631 297.249 293.549C299.331 291.467 300.5 288.644 300.5 285.7V267H278.3V267.2ZM244.9 267.2V285.7C244.9 288.644 246.069 291.467 248.151 293.549C250.233 295.631 253.056 296.8 256 296.8C258.944 296.8 261.767 295.631 263.849 293.549C265.931 291.467 267.1 288.644 267.1 285.7V267H245L244.9 267.2ZM211.5 267.2V285.7C211.5 288.644 212.669 291.467 214.751 293.549C216.833 295.631 219.656 296.8 222.6 296.8C225.544 296.8 228.367 295.631 230.449 293.549C232.531 291.467 233.7 288.644 233.7 285.7V267H211.5V267.2Z" fill="var(--flag-palette-blue, #0052b4)"/>
</svg>

<svg xmlns="http://www.w3.org/2000/svg" width="512" height="512" fill="none"><path fill="var(--flag-palette-white, #eeeeee)" d="m0 0 140.5 27.8L256 0h256l-26.3 132.8L512 256v256l-138.7-30.5L256 512H0l30-139.9L0 256z"/><path fill="var(--flag-palette-black, #333333)" d="m0 0 256 256V0zm256 256h256V0zm0 0v256h256zm0 0H0v256z"/><path fill="var(--flag-palette-dark-yellow, #ffc635)" d="m167 178 89 11.2 89-11.1v-53.4l-35.6 17.8L256 89l-53.4 53.5-35.6-17.8z"/><path fill="var(--flag-palette-bright-red, #d80027)" d="M256 389.6c-49.1 0-89-40-89-89v-89.1l33.3-33.4h111.4l33.3 33.4v89a89 89 0 0 1-89 89z"/><path fill="var(--flag-palette-white, #eeeeee)" d="M256 356.2c-30.7 0-55.7-25-55.7-55.7v-89h111.4v89c0 30.7-25 55.7-55.7 55.7"/><path fill="var(--flag-palette-dark-yellow, #ffc635)" d="M167 178h33.3v33.5H167zm144.7 0H345v33.5h-33.3zm0 72.4H345v33.4h-33.3zm-144.7 0h33.3v33.4H167zm89 105.8q-8.7-.1-16.7-2.6V388a89 89 0 0 0 33.4 0v-34.4q-8.1 2.6-16.7 2.6m-55-46.6-26.6 26.6a89 89 0 0 0 19.4 28l23.6-23.7a56 56 0 0 1-16.3-31zm136.6 26.6-26.7-26.6c-2 12-7.8 22.8-16.3 31l23.6 23.5q12.4-12 19.4-27.9"/><path fill="var(--flag-palette-blue, #0052b4)" d="M244.9 230v18.6a11.1 11.1 0 1 0 22.2 0V230zm0 74.2v18.6a11.1 11.1 0 1 0 22.2 0v-18.6zm33.4-37v18.5a11.1 11.1 0 1 0 22.2 0V267h-22.2zm-33.4 0v18.5a11.1 11.1 0 1 0 22.2 0V267H245zm-33.4 0v18.5a11.1 11.1 0 1 0 22.2 0V267h-22.2z"/></svg>
